X: 2
T: America the Beautiful v.2
P: piffero secondo a0479
C: Samual A. Ward 1882
%R: song, march
F: http://ancients.sudburymuster.org/mus/col/pdf/pathymnsF.pdf
Z: 2020 John Chambers <jc:trillian.mit.edu>
M: 4/4
L: 1/4
K: D
F |\
F>D DF | E>C CC | EE GG | F2 GE |\
F>D DF | E>E EA | AA ^G=G | A^G =GA |
A>A AF | G>A AA | AA GG | F2 GA |\
G>G GG | F>F FA | Bd AG | F3 :|
